app/assets/images/welcomeMap.svg

<svg width="375" height="522" viewBox="0 0 375 522" fill="none" xmlns="http://www.w3.org/2000/svg">
<g filter="url(#filter0_d_13_30)">
<path fill-rule="evenodd" clip-rule="evenodd" d="M42.1004 -124.246C39.0565 -122.607 35.5442 -118.158 34.3735 -114.412C33.6418 -111.924 32.453 -108.065 31.264 -104.205L31.2637 -104.204L31.2633 -104.203C30.55 -101.888 29.8367 -99.5723 29.2222 -97.5531C24.3051 -82.5675 32.5003 -57.7476 46.7834 -44.1669C50.764 -40.4206 53.8079 -35.9717 53.8079 -34.0985C53.8079 -32.2253 56.1494 -26.8399 58.7251 -21.9227C63.1739 -14.1958 63.4081 -11.8543 61.0666 -5.2981C55.6811 10.6241 60.3641 21.6291 71.6033 18.8193C76.0521 17.6486 79.3302 19.2876 86.5889 25.8438C91.7402 30.5268 97.3598 34.2732 99.233 34.2732C103.448 34.2732 110.004 27.9512 110.004 23.9706C110.004 22.0974 111.643 19.5218 113.516 17.8827C116.092 15.7754 117.028 10.1558 116.794 -3.4249C116.56 -19.5812 115.858 -23.0935 110.94 -28.7131C107.896 -32.4595 105.321 -37.1425 105.321 -39.2498C105.321 -44.4011 99.233 -56.3427 95.2524 -58.6842C93.6134 -59.6208 90.5694 -63.3672 88.2279 -67.1136C85.8864 -70.6259 80.0327 -75.0747 74.8814 -77.1821L65.7496 -80.9285L67.1544 -91.9335C68.7935 -105.514 64.813 -118.861 57.7885 -123.778C51.7006 -127.993 49.5932 -127.993 42.1004 -124.246ZM20.1373 2.74004C18.2641 4.61322 16.1567 8.12547 15.2201 10.467C14.0494 14.4475 -3.74602 30.6039 -29.0342 51.209C-33.483 54.9554 -39.5709 57.7652 -42.849 57.7652C-50.8101 57.7652 -53.8541 62.4482 -55.4931 77.4338C-56.6639 87.9705 -55.9614 91.7169 -51.7467 98.7414C-49.1711 103.424 -46.8296 110.683 -46.8296 115.132C-46.8296 125.903 -37.2294 133.63 -25.5219 131.991C-21.0731 131.522 -13.5803 132.459 -9.36562 134.332C1.40527 138.781 17.3275 138.781 24.3519 134.332C27.3959 132.225 30.674 127.074 31.6106 122.859C33.2496 115.834 33.4838 115.6 36.5277 119.815C38.4009 122.156 39.8058 129.649 39.8058 136.205C39.8058 142.762 41.2107 150.254 43.0839 152.596C45.8937 156.576 47.2986 156.811 58.5378 154.235C65.094 152.596 74.2258 151.425 78.6747 151.425C88.2748 151.425 96.0018 144.635 96.0018 136.205C96.0018 133.161 94.3627 126.137 92.0212 120.751C88.509 111.62 88.509 110.683 92.4895 103.19C94.5969 98.9756 100.685 92.1852 105.602 88.2047C113.329 82.1168 114.734 79.5411 114.734 72.0483C114.734 59.6384 109.817 55.892 99.9823 60.1067C90.148 64.3214 49.1718 64.0872 46.5962 59.6384C45.4254 57.7652 47.0645 52.8481 50.3426 46.7602C59.0061 32.2429 58.0695 25.4525 46.362 13.9792C37.4643 5.54982 28.3325 -0.772217 24.8202 -0.772217C24.3519 -0.772217 22.2446 0.866837 20.1373 2.74004ZM470.915 337.324C493.452 327.293 503.016 331.182 501.5 350.299C500.675 362.814 492.823 383.728 487.432 388.564C484.785 390.851 478.483 391.766 473.128 390.949C467.872 389.87 463.007 390.131 462.516 391.438C462.123 392.484 462.935 399.052 464.628 405.653C466.321 412.254 466.838 419.607 465.857 422.221C459.379 439.475 414.352 484.013 393.676 493.848C386.033 497.54 379.532 501.363 378.943 502.932C378.453 504.239 372.443 506.755 365.585 508.356C356.408 510.577 351.217 510.12 345.962 506.656C339.924 502.897 336.463 503.388 322.189 509.661C306.021 517.013 298.87 517.013 293.227 509.823C285.822 500.183 309.419 469.075 328.819 462.638C335.972 460.253 342.635 456.789 343.224 455.221C344.991 450.515 335.502 432.934 329.757 430.777C319.572 426.953 296.259 427.148 288.158 431.266C283.389 433.651 275.683 434.337 268.761 432.931C265.315 432.127 260.687 431.146 256.212 430.198C252.506 429.413 248.906 428.651 246.17 428.029C238.726 426.427 229.061 427.57 216.454 431.785C206.525 435.216 195.944 437.209 193.072 436.131C190.199 435.052 185.856 435.509 183.341 436.653C180.989 438.156 174.066 439.136 168.417 439.103C162.606 438.711 151.438 439.887 143.078 441.52L128.219 444.591L105.962 428.48C76.6559 407.337 60.4422 387.827 46.0985 356.195C39.5786 341.816 28.8191 320.477 22.0363 308.386C12.7104 291.164 10.8211 285.086 12.9803 279.335C14.4525 275.414 14.5892 267.113 13.0592 260.872C10.7807 251.069 9.24711 249.598 0.694202 246.983C-11.711 243.519 -26.293 225.219 -30.5906 208.095C-32.9672 198.553 -32.147 193.194 -28.0914 183.979C-19.5227 165.125 -15.4093 166.072 24.0779 195.811C26.819 198.033 30.3138 196.661 35.9012 191.302C40.2144 186.956 48.217 183.1 53.899 182.251C59.8422 181.499 65.8853 178.101 69.317 173.723C73.4024 168.396 78.7918 165.946 90.4171 164.345C99.2013 163.169 108.736 163.169 111.869 164.346C121.63 167.712 136.429 156.864 141.827 142.486C150.661 118.958 153.174 75.7579 146.293 63.9282C144.141 60.1375 145.157 54.2556 149.574 42.4917C154.088 30.4665 155.303 21.6762 154.528 9.45464C153.203 -9.23713 156.346 -19.988 166.737 -31C176.671 -41.5872 196.979 -39.3316 200.137 -27.1099C200.886 -23.548 203.788 -18.5809 206.333 -15.8358C213.021 -8.25431 252.911 6.1256 268.78 6.71445C280.338 6.87831 282.95 7.85876 288.039 13.3488C295.576 21.8454 308.956 32.2375 315.223 34.5906C318.096 35.669 322.207 39.0023 324.295 42.1722C329.318 49.4269 332.201 80.6343 330.711 108.41C329.253 137.69 331.369 147.134 342.691 158.245C352.153 167.166 357.434 179.29 354.882 186.087C354.195 187.917 357.681 198.472 362.375 209.778C372.708 233.045 372.703 240.202 362.64 249.547L362.164 249.997C352.929 258.729 352.822 258.831 361.579 270.624C365.852 276.703 369.112 283.892 369.077 287.16C368.781 290.329 371.683 295.297 375.273 298.434C385.291 306.669 382.965 316.832 369.277 326.308C359.673 332.843 357.973 335.784 355.549 346.208C353.386 356.73 351.882 359.148 345.774 361.926C336.433 366.173 324.061 361.827 320.606 352.775C315.685 340.488 310.625 338.886 295.273 345.65C287.108 349.146 279.954 353.917 279.07 356.27C276.813 362.282 287.287 372.478 307.947 384.112C317.804 389.603 329.259 397.184 333.436 401.138C337.351 404.995 341.724 408.426 343.03 408.916C346.947 410.387 363.481 393.33 367.015 383.919C371.627 371.632 381.228 369.868 388.274 379.671C396.592 390.848 403.939 390.325 414.919 377.745C420.181 371.667 427.339 362.125 430.543 356.766C434.891 349.152 438.517 346.636 446.877 345.003C452.657 343.892 463.468 340.494 470.915 337.324Z" fill="url(#paint0_radial_13_30)"/>
</g>
<defs>
<filter id="filter0_d_13_30" x="-60" y="-129" width="565.655" height="650.195" filterUnits="userSpaceOnUse" color-interpolation-filters="sRGB">
<feFlood flood-opacity="0" result="BackgroundImageFix"/>
<feColorMatrix in="SourceAlpha" type="matrix" values="0 0 0 0 0 0 0 0 0 0 0 0 0 0 0 0 0 0 127 0" result="hardAlpha"/>
<feOffset dy="2"/>
<feGaussianBlur stdDeviation="2"/>
<feColorMatrix type="matrix" values="0 0 0 0 0.758333 0 0 0 0 0.809921 0 0 0 0 0.8125 0 0 0 0.4 0"/>
<feBlend mode="multiply" in2="BackgroundImageFix" result="effect1_dropShadow_13_30"/>
<feBlend mode="normal" in="SourceGraphic" in2="effect1_dropShadow_13_30" result="shape"/>
</filter>
<radialGradient id="paint0_radial_13_30" cx="0" cy="0" r="1" gradientUnits="userSpaceOnUse" gradientTransform="translate(311.509 47.919) rotate(137.828) scale(458.514 542.834)">
<stop stop-color="#FF912C"/>
<stop offset="0.371805" stop-color="#FF710A"/>
<stop offset="1" stop-color="#BC4705"/>
</radialGradient>
</defs>
</svg>

<svg width="375" height="522" fill="none" xmlns="http://www.w3.org/2000/svg"><g filter="url(#a)"><path fill-rule="evenodd" clip-rule="evenodd" d="M42.1-124.246c-3.044 1.639-6.556 6.088-7.727 9.834-.731 2.488-1.92 6.347-3.109 10.207v.002a2104.47 2104.47 0 0 0-2.042 6.65C24.305-82.567 32.5-57.748 46.783-44.167c3.981 3.746 7.025 8.195 7.025 10.069 0 1.873 2.341 7.258 4.917 12.175 4.449 7.727 4.683 10.069 2.342 16.625-5.386 15.922-.703 26.927 10.536 24.117 4.45-1.17 7.727.469 14.986 7.025 5.151 4.683 10.77 8.43 12.644 8.43 4.215 0 10.771-6.323 10.771-10.303 0-1.874 1.639-4.45 3.512-6.088 2.576-2.108 3.512-7.727 3.278-21.308-.234-16.156-.936-19.668-5.854-25.288-3.044-3.746-5.619-8.43-5.619-10.537 0-5.151-6.088-17.093-10.069-19.434-1.639-.937-4.683-4.683-7.024-8.43-2.342-3.512-8.195-7.96-13.347-10.068l-9.131-3.746 1.404-11.005c1.64-13.581-2.341-26.928-9.365-31.845-6.088-4.215-8.196-4.215-15.689-.468zM20.137 2.74c-1.873 1.873-3.98 5.385-4.917 7.727-1.17 3.98-18.966 20.137-44.254 40.742-4.449 3.746-10.537 6.556-13.815 6.556-7.961 0-11.005 4.683-12.644 19.669-1.17 10.537-.468 14.283 3.746 21.307 2.576 4.683 4.917 11.942 4.917 16.391 0 10.771 9.6 18.498 21.308 16.859 4.449-.469 11.942.468 16.156 2.341 10.771 4.449 26.694 4.449 33.718 0 3.044-2.107 6.322-7.258 7.259-11.473 1.639-7.025 1.873-7.259 4.917-3.044 1.873 2.341 3.278 9.834 3.278 16.39 0 6.557 1.405 14.049 3.278 16.391 2.81 3.98 4.215 4.215 15.454 1.639 6.556-1.639 15.688-2.81 20.137-2.81 9.6 0 17.327-6.79 17.327-15.22 0-3.044-1.64-10.068-3.98-15.454-3.513-9.131-3.513-10.068.468-17.561 2.107-4.214 8.195-11.005 13.112-14.985 7.727-6.088 9.132-8.664 9.132-16.157 0-12.41-4.917-16.156-14.752-11.941-9.834 4.214-50.81 3.98-53.386-.469-1.17-1.873.469-6.79 3.747-12.878 8.663-14.517 7.726-21.307-3.981-32.78C37.464 5.55 28.332-.773 24.82-.773c-.468 0-2.575 1.639-4.683 3.512zm450.778 334.584c22.537-10.031 32.101-6.142 30.585 12.975-.825 12.515-8.677 33.429-14.068 38.265-2.647 2.287-8.949 3.202-14.304 2.385-5.256-1.079-10.121-.818-10.612.489-.393 1.046.419 7.614 2.112 14.215s2.21 13.954 1.229 16.568c-6.478 17.254-51.505 61.792-72.181 71.627-7.643 3.692-14.144 7.515-14.733 9.084-.49 1.307-6.5 3.823-13.358 5.424-9.177 2.221-14.368 1.764-19.623-1.7-6.038-3.759-9.499-3.268-23.773 3.005-16.168 7.352-23.319 7.352-28.962.162-7.405-9.64 16.192-40.748 35.592-47.185 7.153-2.385 13.816-5.849 14.405-7.417 1.767-4.706-7.722-22.287-13.467-24.444-10.185-3.824-33.498-3.629-41.599.489-4.769 2.385-12.475 3.071-19.397 1.665-3.446-.804-8.074-1.785-12.549-2.733-3.706-.785-7.306-1.547-10.042-2.169-7.444-1.602-17.109-.459-29.716 3.756-9.929 3.431-20.51 5.424-23.382 4.346-2.873-1.079-7.216-.622-9.731.522-2.352 1.503-9.275 2.483-14.924 2.45-5.811-.392-16.979.784-25.339 2.417l-14.859 3.071-22.257-16.111c-29.306-21.143-45.52-40.653-59.864-72.285-6.52-14.379-17.279-35.718-24.062-47.809-9.326-17.222-11.215-23.3-9.056-29.051 1.473-3.921 1.61-12.222.08-18.463-2.28-9.803-3.813-11.274-12.366-13.889-12.405-3.464-26.987-21.764-31.285-38.888-2.376-9.542-1.556-14.901 2.5-24.116 8.568-18.854 12.682-17.907 52.169 11.832 2.741 2.222 6.236.85 11.823-4.509 4.313-4.346 12.316-8.202 17.998-9.051 5.943-.752 11.986-4.15 15.418-8.528 4.085-5.327 9.475-7.777 21.1-9.378 8.784-1.176 18.319-1.176 21.452.001 9.761 3.366 24.56-7.482 29.958-21.86 8.834-23.528 11.347-66.728 4.466-78.558-2.152-3.79-1.136-9.672 3.281-21.436 4.514-12.025 5.729-20.816 4.954-33.037-1.325-18.692 1.818-29.443 12.209-40.455 9.934-10.587 30.242-8.332 33.4 3.89.749 3.562 3.651 8.53 6.196 11.274 6.688 7.582 46.578 21.962 62.447 22.55 11.558.164 14.17 1.145 19.259 6.635 7.537 8.496 20.917 18.888 27.184 21.242 2.873 1.078 6.984 4.411 9.072 7.581 5.023 7.255 7.906 38.462 6.416 66.238-1.458 29.28.658 38.724 11.98 49.835 9.462 8.921 14.743 21.045 12.191 27.842-.687 1.83 2.799 12.385 7.493 23.691 10.333 23.267 10.328 30.424.265 39.769l-.476.45c-9.235 8.732-9.342 8.834-.585 20.627 4.273 6.079 7.533 13.268 7.498 16.536-.296 3.169 2.606 8.137 6.196 11.274 10.018 8.235 7.692 18.398-5.996 27.874-9.604 6.535-11.304 9.476-13.728 19.9-2.163 10.522-3.667 12.94-9.775 15.718-9.341 4.247-21.713-.099-25.168-9.151-4.921-12.287-9.981-13.889-25.333-7.125-8.165 3.496-15.319 8.267-16.203 10.62-2.257 6.012 8.217 16.208 28.877 27.842 9.857 5.491 21.312 13.072 25.489 17.026 3.915 3.857 8.288 7.288 9.594 7.778 3.917 1.471 20.451-15.586 23.985-24.997 4.612-12.287 14.213-14.051 21.259-4.248 8.318 11.177 15.665 10.654 26.645-1.926 5.262-6.078 12.42-15.62 15.624-20.979 4.348-7.614 7.974-10.13 16.334-11.763 5.78-1.111 16.591-4.509 24.038-7.679z" fill="url(#b)"/></g><defs><radialGradient id="b" cx="0" cy="0" r="1" gradientUnits="userSpaceOnUse" gradientTransform="rotate(137.828 146.516 84.016) scale(458.514 542.834)"><stop stop-color="#FF912C"/><stop offset=".372" stop-color="#FF710A"/><stop offset="1" stop-color="#BC4705"/></radialGradient><filter id="a" x="-60" y="-129" width="565.655" height="650.195" filterUnits="userSpaceOnUse" color-interpolation-filters="sRGB"><feFlood flood-opacity="0" result="BackgroundImageFix"/><feColorMatrix in="SourceAlpha" values="0 0 0 0 0 0 0 0 0 0 0 0 0 0 0 0 0 0 127 0" result="hardAlpha"/><feOffset dy="2"/><feGaussianBlur stdDeviation="2"/><feColorMatrix values="0 0 0 0 0.758333 0 0 0 0 0.809921 0 0 0 0 0.8125 0 0 0 0.4 0"/><feBlend mode="multiply" in2="BackgroundImageFix" result="effect1_dropShadow_13_30"/><feBlend in="SourceGraphic" in2="effect1_dropShadow_13_30" result="shape"/></filter></defs></svg>
